X: 70
T:When Order In This Lane,2nd part. JNu.39
M:4/4
Q:120
S:James Nuttall MS,c1830,Rossendale,East Lancs.
O:England
A:East Lancashire
Z:vmp.Chris Partington
K:Bb
"secundo"F2|D2D>FB2D2|F2F>FF2F2|F2G>ED2C2|D4z2F2|!
D2D>FB2D2|F2F>FF2F2|F2G>ED2C2|D2D>DD2z2|!
A2A>FA2A>A|c2c>cA2F2|F4=E4|F2F>FF2z2|!
z4B,4|B,4C4|D2.A.BA2B2|B2A>AA2F2|!
(d2d>B)(c2c>A|B2B>DF2F2|B3f edcB|F2F>FF3F|!
D2D>FB2F2|F2F>FF2F2|F2G>ED2C2|B,2z2z2e2|!
d4z2e2|d4z2e2|d2d>cB2A2|B4z2e2|!
d4z2e2|d4z2e2|d2d>cB2A2|B2B>BB2z2|]
